!!!SOCIAL_FUNCTION:	bird dance songs
!!!PDT:	1956
!!!OTL: No_182_Old_Man's_Dance_Song_(a).krn
!!!LANG: Non-Tone
!!!LING_GROUP: Muskogean
!!!REG: Florida
**kern
*staff1
=1-
*clefF4
*k[b-e-a-]
*M2/4
4G\
4B-\
=2!|:
(16B-\LK
8.G\J)
4G\
=3
2A-\
=4
4r
4G\
=5
16A-\LK
8.A-\J
4G\
=6
4E-\
4E-\
=7||
*M3/4
16A-\LK
8.A-\J
8G\L
8G\J
4E-\
=8
4G\
4r
4G\
=9||
*M2/4
16A-\LK
8.A-\J
4G\
=10||
*M3/4
4E-\
4E-\
4B-\
=11:|!
*M2/4
4E-\
4E-\
==
*-
